packages/katcn/src/icons/svg/earbuds-solid.svg

<svg width="24" height="25" viewBox="0 0 24 25" fill="none" xmlns="http://www.w3.org/2000/svg">
<path d="M8.9 21.312C7.5 21.312 6.4 20.212 6.4 18.812V13.812C3.4 13.812 1 11.512 1 8.51201C1 5.61201 3.3 3.31201 6.2 3.31201C9.1 3.31201 11.4 5.61201 11.4 8.51201V18.712C11.4 19.412 11.1 20.012 10.6 20.512C10.2 21.012 9.6 21.312 8.9 21.312Z" fill="black"/>
<path d="M15.1 21.312C14.4 21.312 13.8 21.012 13.3 20.512C12.8 20.012 12.6 19.412 12.6 18.712V8.51201C12.6 5.61201 14.9 3.31201 17.8 3.31201C20.7 3.31201 23 5.61201 23 8.51201C23 11.412 20.6 13.812 17.6 13.712V18.712C17.6 20.212 16.5 21.312 15.1 21.312Z" fill="black"/>
</svg>

<svg xmlns="http://www.w3.org/2000/svg" fill="none" viewBox="0 0 24 25"><path fill="#000" d="M8.9 21.312c-1.4 0-2.5-1.1-2.5-2.5v-5c-3 0-5.4-2.3-5.4-5.3 0-2.9 2.3-5.2 5.2-5.2s5.2 2.3 5.2 5.2v10.2c0 .7-.3 1.3-.8 1.8-.4.5-1 .8-1.7.8m6.2 0c-.7 0-1.3-.3-1.8-.8s-.7-1.1-.7-1.8v-10.2c0-2.9 2.3-5.2 5.2-5.2s5.2 2.3 5.2 5.2-2.4 5.3-5.4 5.2v5c0 1.5-1.1 2.6-2.5 2.6"/></svg>
